X: 1
T: Morgan on the Railroad
C: Jim Woodward
R: reel
Z: 2020 John Chambers <jc:trillian.mit.edu>
S: https://www.facebook.com/groups/Fiddletuneoftheday/
S: https://www.facebook.com/groups/Fiddletuneoftheday/photos/
M: C|
L: 1/8
K: G
[|\
JB3G EFGA | Bdef g2e2 | JB3G EFGA | BdAF G2 (3DEF |
GABG EFGA | Bdef gfed | BABG EFGA | BGAF G2 DF |]
[|\
GABd gfge | GABG DFAF | GABd g2fg | ecAF G2G2 |
JB4 g4 | f3g edBc | d2ef gaba gedc | BG-G2 |]
